icons/1_Primary/Spry Servers.svg

<svg xmlns="http://www.w3.org/2000/svg" viewBox="0 0 1024 1024">
   <circle cx="512" cy="512" r="512" style="fill:#6abe55"/>
   <path d="M439.4 682.81c-24.84 8.79-82.91 24.07-90.56 24.07-6.11 0-35.73-30.95-49.29-51.58C269.95 610.4 256 564.36 256 512c0-70.5 27.32-134.69 78.14-184a257.93 257.93 0 0 1 134.88-69c21.21-3.82 63-3.82 85.21 0 36.3 6.11 76.23 22.54 106.6 44.32 16 11.46 27.13 21.4 26 23.31-.38.57-5.92 5.16-12 10.13l-11.46 9-4.78-8.21c-6.3-10.7-20.44-23.5-30.57-27.89-45.09-19.3-109.28-2.87-182.64 46.42-73.55 49.67-129.91 115-142.71 165.44-4.2 16.24-2.87 38 2.67 48.91 15.47 30.19 61.33 39.36 111 22.54 8-2.87 36.49-15.67 63.43-28.66 61.71-29.8 73.74-34 95.71-34.2 14.71 0 17 .38 21.21 4.59 7.07 6.5 8 16.24 3.25 30.76-15.53 46.28-69.6 85.82-160.54 117.35ZM629.68 445l-5.68 5.88h-46.28l-3.06-6.3c-2.87-5.92-2.87-6.3 3.82-14.71 3.63-4.78 9.55-11.65 13-15.28 12-13 9.93-30.38-4.59-34.2-8.41-2.48-7.45-2.48-23.12 1-33.81 7.45-69.16 28.85-103 62.28-29.61 29.42-50.05 57.31-50.05 68.59 0 7.83 9.36 5.16 67.82-19.3C536.64 468.45 568 460 598.93 460c21 .19 36.49 3.82 51.2 12.42 23.88 13.95 35 42.6 30.19 77.37-5.35 38-23.69 71.07-60.18 109.09-34.2 35.34-72 62.28-125.9 90.17-22.16 11.27-27.7 14.9-24.84 16 1.91.76 16.81 1.91 33.24 2.48 35.53 1 58.84-2.1 88.84-12C632.17 742 666 720.82 695.79 690.07 743.16 641.16 768 579.83 768 512c0-29-3.82-53.49-12.42-79.67-6.3-18.91-20.06-48.91-23.69-51-6.89-4.39-82.15 42.42-102.21 63.67Z" style="fill:#fff"/>
</svg>

<svg width="1024" height="1024" viewBox="0 0 1024 1024" fill="none" xmlns="http://www.w3.org/2000/svg">
<g clip-path="url(#clip0_2_3534)">
<path d="M512 1024C794.77 1024 1024 794.77 1024 512C1024 229.23 794.77 0 512 0C229.23 0 0 229.23 0 512C0 794.77 229.23 1024 512 1024Z" fill="#98DC9A"/>
<path d="M439.4 682.81C414.56 691.6 356.49 706.88 348.84 706.88C342.73 706.88 313.11 675.93 299.55 655.3C269.95 610.4 256 564.36 256 512C256 441.5 283.32 377.31 334.14 328C371.179 292.016 418.166 267.979 469.02 259C490.23 255.18 532.02 255.18 554.23 259C590.53 265.11 630.46 281.54 660.83 303.32C676.83 314.78 687.96 324.72 686.83 326.63C686.45 327.2 680.91 331.79 674.83 336.76L663.37 345.76L658.59 337.55C652.29 326.85 638.15 314.05 628.02 309.66C582.93 290.36 518.74 306.79 445.38 356.08C371.83 405.75 315.47 471.08 302.67 521.52C298.47 537.76 299.8 559.52 305.34 570.43C320.81 600.62 366.67 609.79 416.34 592.97C424.34 590.1 452.83 577.3 479.77 564.31C541.48 534.51 553.51 530.31 575.48 530.11C590.19 530.11 592.48 530.49 596.69 534.7C603.76 541.2 604.69 550.94 599.94 565.46C584.41 611.74 530.34 651.28 439.4 682.81ZM629.68 445L624 450.88H577.72L574.66 444.58C571.79 438.66 571.79 438.28 578.48 429.87C582.11 425.09 588.03 418.22 591.48 414.59C603.48 401.59 601.41 384.21 586.89 380.39C578.48 377.91 579.44 377.91 563.77 381.39C529.96 388.84 494.61 410.24 460.77 443.67C431.16 473.09 410.72 500.98 410.72 512.26C410.72 520.09 420.08 517.42 478.54 492.96C536.64 468.45 568 460 598.93 460C619.93 460.19 635.42 463.82 650.13 472.42C674.01 486.37 685.13 515.02 680.32 549.79C674.97 587.79 656.63 620.86 620.14 658.88C585.94 694.22 548.14 721.16 494.24 749.05C472.08 760.32 466.54 763.95 469.4 765.05C471.31 765.81 486.21 766.96 502.64 767.53C538.17 768.53 561.48 765.43 591.48 755.53C632.17 742 666 720.82 695.79 690.07C743.16 641.16 768 579.83 768 512C768 483 764.18 458.51 755.58 432.33C749.28 413.42 735.52 383.42 731.89 381.33C725 376.94 649.74 423.75 629.68 445Z" fill="white"/>
</g>
<defs>
<clipPath id="clip0_2_3534">
<rect width="1024" height="1024" fill="white"/>
</clipPath>
</defs>
</svg>
